ufans-frontend-package/public/assets/images/new-home/icon/dashboard-theme-1.svg

<svg xmlns="http://www.w3.org/2000/svg" width="512.001" height="407.199" viewBox="0 0 512.001 407.199">
  <g id="dashboard-theme-1" transform="translate(0.001 0.194)">
    <path id="Path_1" data-name="Path 1" d="M435.143,76.858a20,20,0,0,0-25.407-2.384c-29.926,20.4-180.03,122.969-196.162,139.1a60,60,0,1,0,84.854,84.854c16.131-16.132,118.7-166.236,139.1-196.162a20.006,20.006,0,0,0-2.385-25.408Zm-165,193.285a20,20,0,1,1-28.287-28.28c6.268-6.194,48.885-36.588,101.319-73.035-36.447,52.434-66.841,95.049-73.033,101.315Z" fill="#e44499"/>
    <path id="Path_2" data-name="Path 2" d="M92.231,349.024l-24.69,12.044A214.992,214.992,0,0,1,54.06,179.317l28.291,13.57a20,20,0,0,0,17.3-36.066l-27.932-13.4A216.279,216.279,0,0,1,236,40.918V71a20,20,0,0,0,40,0V40.9a213.525,213.525,0,0,1,68.772,18.12,20,20,0,1,0,16.457-36.457A255.79,255.79,0,0,0,43.373,398.115a20,20,0,0,0,25.4,6.86l41-20a20,20,0,1,0-17.538-35.951Z" fill="#e44499"/>
    <path id="Path_3" data-name="Path 3" d="M489.436,150.773a20,20,0,1,0-36.457,16.457,215.3,215.3,0,0,1-8.6,193.989L418.6,348.944a20,20,0,1,0-17.2,36.115l42,20a20,20,0,0,0,25.225-6.942,255.393,255.393,0,0,0,20.81-247.344Z" fill="#e44499"/>
  </g>
</svg>

<svg width="512" height="408" viewBox="0 0 512 408" fill="none" xmlns="http://www.w3.org/2000/svg">
<path d="M435.143 76.8578C428.347 70.0628 417.68 69.0608 409.736 74.4738C379.81 94.8718 229.706 197.443 213.574 213.574C190.18 236.969 190.18 275.033 213.574 298.428C225.271 310.124 240.637 315.973 256.001 315.973C271.365 315.973 286.73 310.124 298.428 298.428C314.559 282.296 417.129 132.192 437.528 102.266C442.939 94.3228 441.938 83.6548 435.143 76.8578ZM270.142 270.143C262.345 277.942 249.656 277.942 241.859 270.143C234.061 262.346 234.06 249.661 241.855 241.863C248.123 235.669 290.74 205.275 343.174 168.828C306.728 221.262 276.334 263.877 270.142 270.143Z" fill="#6661E7"/>
<path d="M92.231 349.024L67.541 361.068C49.475 328.826 40 292.839 40 256C40 229.009 44.977 203.158 54.06 179.317L82.351 192.887C85.141 194.225 88.086 194.859 90.987 194.859C98.44 194.859 105.595 190.674 109.034 183.504C113.81 173.545 109.61 161.598 99.65 156.821L71.718 143.423C106.435 86.803 166.502 47.328 236.001 40.918V70.999C236.001 82.045 244.955 90.999 256.001 90.999C267.047 90.999 276.001 82.045 276.001 70.999V40.903C299.829 43.072 322.885 49.14 344.772 59.02C354.837 63.565 366.684 59.086 371.229 49.021C375.774 38.953 371.297 27.108 361.229 22.563C328.063 7.592 292.659 0 256 0C187.62 0 123.333 26.628 74.98 74.98C26.629 123.333 0 187.62 0 256C0 306.53 14.998 355.674 43.373 398.115C47.195 403.83 53.514 407.001 60.012 407.001C62.966 407.001 65.958 406.346 68.769 404.975L109.769 384.975C119.697 380.132 123.819 368.159 118.976 358.231C114.133 348.304 102.159 344.183 92.231 349.024Z" fill="#6661E7"/>
<path d="M489.436 150.773C484.892 140.706 473.049 136.226 462.978 140.773C452.911 145.318 448.434 157.163 452.979 167.23C465.601 195.188 472 225.055 472 256.001C472 292.895 462.494 328.94 444.375 361.219L418.598 348.944C408.627 344.196 396.692 348.429 391.942 358.403C387.193 368.375 391.428 380.31 401.401 385.059L443.401 405.059C446.164 406.374 449.093 407.003 451.989 407.003C458.489 407.003 464.809 403.828 468.626 398.117C497.002 355.675 512 306.531 512 256.001C512 219.342 504.408 183.938 489.436 150.773Z" fill="#6661E7"/>
</svg>
